X: 11
T:Dingle Regatta
R:slide
M:12/8
L:1/8
K:G
dBd e2d BAB d2B|A2A AGA B2A G2d|dBd e2d BAB d2B|AGA B2A G3 G2d:|
|:d2d def g3 gfg|a2a aga b2a gfe|d2d def g3 gfg|a2g f2e def g3:|
|:g3 d3 BdB G3|A2A DEF G2B d3|g3 d3 BdB G3|ABA DEF G3 G3:|
